X:1
T:Tuggermen's Jig
C:Don Messer
S:https://tunearch.org/wiki/Tuggermen%27s_Jig
B:Don Messer "Backwoods melodies with Don Messer and his Islanders" 1949
%D:1949
M:6/8
L:1/8
K:D
z |\
"D"A,2D F2A | dcB A2F | DFA dcB | "A"AFD E2D |
"D"A,2D F2A | dcB A2F | "A"EFG ABc | dAF"D"D2 :|
K:A
c/d/ |:\
   "A"efe c2A | EAca2a | "E"gee bee | bge bge |
|1 "A"efe c2A | EAca2a | "E"gfe dcB | "A"[e2A2][eA] [eA]cd :|
|2 "A"c2e fec | EAca2a | "E"gfe dcB | "A"[e2A2][eA][e2A |]
